icons/1_Primary/Codeberg.svg

<svg xmlns="http://www.w3.org/2000/svg" viewBox="0 0 1024 1024">
   <circle cx="512" cy="512" r="512" style="fill:#2185d0"/>
   <path d="m290.2 629.4-2.8 3.6c-19.4-36-30.5-77.2-30.5-121 0-140.9 114.2-255.1 255.1-255.1S767.1 371.1 767.1 512c0 44-11.2 85.5-30.8 121.6l-2.8-3.6-1-1.4-207.3-268-6.6-8.6c-.8-1-1.9-1.9-3.2-2.4-1.1-.5-2.4-.7-3.7-.7-2.8 0-5.4 1.2-6.9 3.2l-6.6 8.6-205 265.1-3 3.6zm5 15.2-.1.1c37 58.9 96.7 102.1 166.9 117.4 16.2 3.2 32.9 4.9 50 4.9 36.1 0 70.4-7.5 101.4-21L511.7 364.8 295.2 644.6z" style="fill:#fff"/>
</svg>

<svg width="1024" height="1024" viewBox="0 0 1024 1024" fill="none" xmlns="http://www.w3.org/2000/svg">
<g clip-path="url(#clip0_2_1836)">
<path d="M512 1024C794.77 1024 1024 794.77 1024 512C1024 229.23 794.77 0 512 0C229.23 0 0 229.23 0 512C0 794.77 229.23 1024 512 1024Z" fill="#9ABEFF"/>
<path d="M290.2 629.4L287.4 633C268 597 256.9 555.8 256.9 512C256.9 371.1 371.1 256.9 512 256.9C652.9 256.9 767.1 371.1 767.1 512C767.1 556 755.9 597.5 736.3 633.6L733.5 630L732.5 628.6L525.2 360.6L518.6 352C517.8 351 516.7 350.1 515.4 349.6C514.3 349.1 513 348.9 511.7 348.9C508.9 348.9 506.3 350.1 504.8 352.1L498.2 360.7L293.2 625.8L290.2 629.4ZM295.2 644.6L295.1 644.7C332.1 703.6 391.8 746.8 462 762.1C478.2 765.3 494.9 767 512 767C548.1 767 582.4 759.5 613.4 746L511.7 364.8L295.2 644.6Z" fill="white"/>
</g>
<defs>
<clipPath id="clip0_2_1836">
<rect width="1024" height="1024" fill="white"/>
</clipPath>
</defs>
</svg>
